X:216
T: O SUESSE HIMMELSLUST
N: B0257
O: Europa, Mitteleuropa, Deutschland
R: Stimmungs - Lied, Sehnsucht
M: 3/4
L: 1/8
K: G
 | B2A2G2 | F2E2E2
c2B2A2 | G2F2F2
e2d2d2 | g3dd2
e2d2F2 | G2z4
_e2d2c2 | c2_B2B2
c2B2_A2 | _A2G2G2
_B2G2G2 | d3BB2
e2d2F2 | G2z4
G2G2A2 | B3cB2
B2A3B | A2G2G2
d3BB2 | B3GG2
F2^D2F2 | B4z2
c2d3c | B3GB2
e2c2e2 | d2c2B2
d2c2A2 | e3dB2
d2c2F2 | G2z4

